svgs/sharp-regular/paperclip-vertical.svg

<svg xmlns="http://www.w3.org/2000/svg" viewBox="0 0 384 512"><!--! Font Awesome Pro 6.6.0 by @fontawesome - https://fontawesome.com License - https://fontawesome.com/license (Commercial License) Copyright 2024 Fonticons, Inc. --><path d="M48 108C48 48.4 96.4 0 156 0s108 48.4 108 108l0 236c0 39.8-32.2 72-72 72s-72-32.2-72-72l0-192 0-24 48 0 0 24 0 192c0 13.3 10.7 24 24 24s24-10.7 24-24l0-236c0-33.1-26.9-60-60-60s-60 26.9-60 60l0 260c0 53 43 96 96 96s96-43 96-96l0-216 0-24 48 0 0 24 0 216c0 79.5-64.5 144-144 144s-144-64.5-144-144l0-260z"/></svg>

<svg xmlns="http://www.w3.org/2000/svg" viewBox="0 0 384 512"><!--! Font Awesome Pro 6.5.2 by @fontawesome - https://fontawesome.com License - https://fontawesome.com/license (Commercial License) Copyright 2024 Fonticons, Inc. --><path d="M48 108C48 48.4 96.4 0 156 0s108 48.4 108 108V344c0 39.8-32.2 72-72 72s-72-32.2-72-72V152 128h48v24V344c0 13.3 10.7 24 24 24s24-10.7 24-24V108c0-33.1-26.9-60-60-60s-60 26.9-60 60V368c0 53 43 96 96 96s96-43 96-96V152 128h48v24V368c0 79.5-64.5 144-144 144s-144-64.5-144-144V108z"/></svg>
